build/img/timer-outer-round-tablet.svg

<svg width="238" height="276" viewBox="0 0 238 276" fill="none" xmlns="http://www.w3.org/2000/svg">
<path d="M211.314 81.6277L215.587 77.3408C221.752 71.1663 222.878 62.1925 218.086 57.4017C213.294 52.6109 204.334 53.7227 198.176 59.8971L193.871 64.208C176.746 50.2779 156.074 41.4187 134.187 38.6304V30.9603H140.305C149.019 30.9603 156.151 23.994 156.151 15.4842C156.151 6.97427 149.019 0 140.305 0H97.7208C89.0075 0 81.8755 6.96627 81.8755 15.4842C81.8755 24.002 89.0075 30.9603 97.7208 30.9603H103.839V38.6304C77.6967 41.9933 53.4093 53.9522 34.7872 72.6308C16.1652 91.3093 4.26218 115.651 0.945904 141.835C-2.37038 168.02 3.08771 194.566 16.4638 217.309C29.8399 240.052 50.377 257.704 74.8528 267.496C99.3286 277.288 126.358 278.665 151.7 271.412C177.042 264.16 199.263 248.687 214.875 227.421C230.488 206.156 238.609 180.302 237.964 153.915C237.32 127.529 227.946 102.103 211.314 81.6277ZM119.013 244.947C101.61 244.947 84.5984 239.779 70.1286 230.097C55.6589 220.414 44.3813 206.652 37.7219 190.551C31.0625 174.45 29.3205 156.733 32.7162 139.64C36.1119 122.547 44.4927 106.847 56.7989 94.5241C69.105 82.2015 84.7837 73.81 101.852 70.411C118.921 67.012 136.613 68.7581 152.69 75.4285C168.768 82.0989 182.509 93.3939 192.176 107.885C201.844 122.377 207.003 139.413 207.001 156.841C206.999 180.209 197.728 202.619 181.227 219.142C164.726 235.665 142.348 244.947 119.013 244.947Z" fill="#DEDEDE"/>
</svg>

<svg width="238" height="276" fill="none" xmlns="http://www.w3.org/2000/svg"><path d="M211.314 81.628l4.273-4.287c6.165-6.175 7.291-15.148 2.499-19.94-4.792-4.79-13.752-3.678-19.91 2.496l-4.305 4.311a118.265 118.265 0 00-59.684-25.578v-7.67h6.118c8.714 0 15.846-6.966 15.846-15.476 0-8.51-7.132-15.484-15.846-15.484H97.721c-8.714 0-15.846 6.966-15.846 15.484S89.008 30.96 97.722 30.96h6.118v7.67a118.935 118.935 0 00-69.052 34A119.238 119.238 0 00.946 141.836a119.313 119.313 0 0015.518 75.474 119.047 119.047 0 0058.389 50.187 118.839 118.839 0 0076.847 3.916 118.988 118.988 0 0063.175-43.991 119.28 119.28 0 0023.089-73.506 119.27 119.27 0 00-26.65-72.287zm-92.301 163.319a87.901 87.901 0 01-48.884-14.85 88.092 88.092 0 01-32.407-39.546 88.23 88.23 0 01-5.006-50.911A88.153 88.153 0 0156.8 94.524a87.95 87.95 0 0145.053-24.113 87.87 87.87 0 0150.838 5.017 88.012 88.012 0 0139.486 32.457 88.197 88.197 0 0114.825 48.956 88.177 88.177 0 01-25.774 62.301 87.923 87.923 0 01-62.214 25.805z" fill="#DEDEDE"/></svg>
